X: 38483
T: Steampacket, The
R: reel
M: 4/4
K: Gmajor
|~G3B AGFD|A~G3 Addc|A~G3 AGFD|=FEFG ABcz|
A~G3 AGFD|A~G3 Addc|A~G3 AGFD|=FEFG ABc^c|
d~g3 a~g3|d2eg fdcA|d~g3 a~g3|dcde fdcA|
d~g3 a~g3|abag ~f3g|abge fd(3edc|d2eg fdcA|

